X:1
T:Title
L:1/8
Q:1/4=130
M:3/4
K:E
V:1 treble nm="Church Organ, Staff"
V:1
 GG G3 A | G2 F2 F2 | G2 E4 | c2 B4 | B2 e3 d | c2 B2 E2 | A2 F4- | F2 F4 | G2 G2 F2 | D2 E4 | %10
w: By~Samuel~Smith * * *||||||||||
 c2 B2 A2 | F2 G4 | e2 d2 F2 | d2 c4 | d2 B4- | B2 B4 | B2 B3 A | G2 F2 A2 | c2 c2 B2 | A2 G4 | %20
w: ||||||||||
 ED C2 F2 | E2 D2 G2 | F2 E4- | E2 E4 |] %24
w: ||||

